;START_OF_HEADER
;HEADER_VERSION:0.1
;FLAVOR:Griffin
;GENERATOR.NAME:Cura_SteamEngine
;GENERATOR.VERSION:5.2.1
;GENERATOR.BUILD_DATE:2022-10-19
;TARGET_MACHINE.NAME:Ultimaker S5
;EXTRUDER_TRAIN.0.INITIAL_TEMPERATURE:210
;EXTRUDER_TRAIN.0.MATERIAL.VOLUME_USED:25333
;EXTRUDER_TRAIN.0.MATERIAL.GUID:506c9f0d-e3aa-4bd4-b2d2-23e2425b1aa9
;EXTRUDER_TRAIN.0.NOZZLE.DIAMETER:0.4
;EXTRUDER_TRAIN.0.NOZZLE.NAME:AA 0.4
;BUILD_PLATE.INITIAL_TEMPERATURE:60
;BUILD_VOLUME.TEMPERATURE:28
;PRINT.TIME:5455
;PRINT.GROUPS:1
;PRINT.SIZE.MIN.X:107.204
;PRINT.SIZE.MIN.Y:56.374
;PRINT.SIZE.MIN.Z:0.27
;PRINT.SIZE.MAX.X:222.794
;PRINT.SIZE.MAX.Y:171.964
;PRINT.SIZE.MAX.Z:10.97
;SLICE_UUID:3822f3d7-69c1-44db-ad3e-6f777e43b90c
;END_OF_HEADER
;Generated with Cura_SteamEngine 5.2.1
T0
M82 ;absolute extrusion mode

G92 E0
M109 S210
G280 S1
G0 Z20.001
G1 F2700 E-6.5
;LAYER_COUNT:30
;LAYER:0
M107
M204 S1000
M205 X30 Y30
G1 F600 Z2.27
G0 F3600 X212.288 Y147.399 Z2.27
;TYPE:SKIRT
G1 F600 Z0.27
G1 F2700 E0
G1 F1200 X211.743 Y148.15 E0.01885
G1 X210.39 Y149.954 E0.06466
G1 X209.631 Y150.878 E0.08895
G1 X208.186 Y152.584 E0.13437
G1 X207.338 Y153.5 E0.15973
G1 X206.099 Y154.796 E0.19616
G1 X205.578 Y155.324 E0.21123
G1 X204.939 Y155.936 E0.2292
G1 X203.29 Y157.465 E0.27489
G1 X202.342 Y158.272 E0.30018
G1 X200.619 Y159.687 E0.34547
G1 X199.622 Y160.437 E0.37082
G1 X198.195 Y161.474 E0.40666
G1 X197.574 Y161.91 E0.42207
G1 X196.832 Y162.399 E0.44012
G1 X195.302 Y163.376 E0.477
G1 X194.659 Y163.773 E0.49236
G1 X193.891 Y164.216 E0.51037
G1 X191.919 Y165.315 E0.55623
G1 X190.841 Y165.857 E0.58074
G1 X189.226 Y166.634 E0.61715
G1 X188.53 Y166.956 E0.63273
G1 X187.678 Y167.32 E0.65155
G1 X186.018 Y168 E0.688
G1 X185.354 Y168.26 E0.70248
G1 X184.466 Y168.579 E0.72165
G1 X182.354 Y169.3 E0.76699
G1 X181.16 Y169.651 E0.79227
G1 X179.424 Y170.13 E0.82886
G1 X178.768 Y170.3 E0.84262
G1 X177.844 Y170.512 E0.86188
G1 X176.064 Y170.89 E0.89885
G1 X175.391 Y171.023 E0.91279
G1 X174.69 Y171.142 E0.92723
G1 X172.67 Y171.447 E0.96874
G1 X171.962 Y171.542 E0.98325
G1 X170.996 Y171.644 E1.00298
G1 X169.227 Y171.803 E1.03906
G1 X168.456 Y171.86 E1.05477
G1 X167.612 Y171.898 E1.07193
G1 X165.724 Y171.955 E1.11031
G1 X165.053 Y171.964 E1.12394
G1 X164.111 Y171.95 E1.14308
G1 X161.896 Y171.884 E1.1881
G1 X160.635 Y171.791 E1.21378
G1 X158.831 Y171.628 E1.25058
G1 X158.156 Y171.557 E1.26437
G1 X157.183 Y171.425 E1.28432
G1 X154.875 Y171.076 E1.33174
G1 X153.884 Y170.879 E1.35227
G1 X152.097 Y170.499 E1.38938
G1 X151.33 Y170.324 E1.40536
G1 X150.4 Y170.083 E1.42488
G1 X148.264 Y169.491 E1.46991
G1 X147.126 Y169.124 E1.4942
G1 X145.435 Y168.546 E1.53051
G1 X144.731 Y168.293 E1.54571
G1 X143.82 Y167.936 E1.56558
G1 X142.222 Y167.28 E1.60068
G1 X141.497 Y166.97 E1.61669
G1 X140.701 Y166.601 E1.63452
G1 X139.032 Y165.797 E1.67215
G1 X138.42 Y165.49 E1.68606
G1 X137.567 Y165.032 E1.70573
G1 X136.045 Y164.183 E1.74114
G1 X135.464 Y163.849 E1.75475
G1 X134.582 Y163.306 E1.77579
G1 X133.07 Y162.339 E1.81226
G1 X132.47 Y161.942 E1.82687
G1 X131.752 Y161.438 E1.84469
G1 X130.222 Y160.325 E1.88313
G1 X129.65 Y159.896 E1.89766
G1 X128.981 Y159.362 E1.91505
G1 X127.57 Y158.203 E1.95214
G1 X126.998 Y157.717 E1.96739
G1 X126.316 Y157.103 E1.98603
G1 X125.01 Y155.892 E2.02222
G1 X124.451 Y155.355 E2.03796
G1 X123.8 Y154.695 E2.0568
G1 X122.574 Y153.411 E2.09286
G1 X122.06 Y152.858 E2.1082
G1 X121.461 Y152.171 E2.12672
G1 X120.303 Y150.804 E2.16311
G1 X119.816 Y150.212 E2.17869
G1 X119.32 Y149.572 E2.19514
G1 X117.892 Y147.667 E2.2435
G1 X117.248 Y146.723 E2.26672
G1 X116.232 Y145.184 E2.30418
G1 X115.859 Y144.598 E2.31829
G1 X115.351 Y143.748 E2.33841
G1 X114.481 Y142.239 E2.3738
G1 X114.113 Y141.58 E2.38913
G1 X113.707 Y140.798 E2.40703
G1 X112.696 Y138.776 E2.45296
G1 X112.176 Y137.614 E2.47882
G1 X111.278 Y135.486 E2.52574
G1 X110.824 Y134.291 E2.55171
G1 X110.134 Y132.364 E2.59329
G1 X109.753 Y131.135 E2.61943
G1 X109.259 Y129.441 E2.65528
G1 X109.063 Y128.73 E2.67026
G1 X108.848 Y127.851 E2.68865
G1 X108.45 Y126.104 E2.72505
G1 X108.235 Y125.095 E2.74601
G1 X107.838 Y122.703 E2.79527
G1 X107.721 Y121.929 E2.81117
G1 X107.618 Y121.07 E2.82874
G1 X107.382 Y118.834 E2.87442
G1 X107.304 Y117.56 E2.90035
G1 X107.206 Y115.369 E2.94491
G1 X107.204 Y114.148 E2.96971
G1 X107.237 Y111.903 E3.01533
G1 X107.307 Y110.718 E3.03944
G1 X107.477 Y108.459 E3.08546
G1 X107.618 Y107.255 E3.11009
G1 X107.826 Y105.718 E3.1416
G1 X107.938 Y104.964 E3.15709
G1 X108.18 Y103.593 E3.18537
G1 X108.488 Y102.038 E3.21757
G1 X108.645 Y101.306 E3.23278
G1 X108.854 Y100.449 E3.2507
G1 X109.42 Y98.271 E3.29642
G1 X109.768 Y97.138 E3.3205
G1 X110.464 Y94.995 E3.36627
G1 X110.913 Y93.794 E3.39232
G1 X111.558 Y92.152 E3.42816
G1 X111.834 Y91.479 E3.44294
G1 X112.207 Y90.641 E3.46157
G1 X112.974 Y88.99 E3.49856
G1 X113.288 Y88.337 E3.51328
G1 X113.718 Y87.507 E3.53227
G1 X114.568 Y85.927 E3.56871
G1 X115.071 Y85.028 E3.58964
G1 X116.321 Y83.006 E3.63794
G1 X116.75 Y82.335 E3.65411
G1 X117.251 Y81.598 E3.67222
G1 X118.564 Y79.734 E3.71854
G1 X119.327 Y78.748 E3.74387
G1 X120.413 Y77.386 E3.77926
G1 X120.895 Y76.799 E3.79469
G1 X121.469 Y76.142 E3.81241
G1 X122.666 Y74.813 E3.84875
G1 X123.141 Y74.299 E3.86296
G1 X123.827 Y73.6 E3.88286
G1 X125.101 Y72.346 E3.91918
G1 X125.657 Y71.815 E3.9348
G1 X126.175 Y71.346 E3.94899
G1 X127.726 Y69.992 E3.99082
G1 X128.258 Y69.542 E4.00497
G1 X128.991 Y68.957 E4.02403
G1 X130.375 Y67.887 E4.05957
G1 X131.009 Y67.412 E4.07566
G1 X131.744 Y66.894 E4.09393
G1 X133.249 Y65.869 E4.13092
G1 X133.849 Y65.474 E4.14551
G1 X134.637 Y64.986 E4.16434
G1 X136.199 Y64.054 E4.20129
G1 X136.831 Y63.689 E4.21612
G1 X137.603 Y63.273 E4.23394
G1 X139.844 Y62.11 E4.28523
G1 X142.342 Y60.992 E4.34083
G1 X143.049 Y60.691 E4.35644
G1 X143.924 Y60.347 E4.37554
G1 X145.597 Y59.72 E4.41183
G1 X146.278 Y59.477 E4.42652
G1 X147.165 Y59.189 E4.44547
G1 X148.907 Y58.652 E4.4825
G1 X149.603 Y58.449 E4.49723
G1 X150.456 Y58.228 E4.51513
G1 X152.229 Y57.795 E4.55221
G1 X152.922 Y57.637 E4.56665
G1 X153.883 Y57.447 E4.58655
G1 X155.598 Y57.136 E4.62196
G1 X156.267 Y57.024 E4.63574
G1 X157.252 Y56.889 E4.65594
G1 X159.056 Y56.672 E4.69285
G1 X159.769 Y56.598 E4.70741
G1 X160.752 Y56.525 E4.72744
G1 X162.479 Y56.421 E4.76259
G1 X163.256 Y56.387 E4.77839
G1 X164.086 Y56.374 E4.79525
G1 X165.972 Y56.374 E4.83357
G1 X166.674 Y56.386 E4.84783
G1 X167.652 Y56.43 E4.86772
G1 X169.434 Y56.536 E4.90398
G1 X170.127 Y56.589 E4.9181
G1 X171.065 Y56.687 E4.93726
G1 X172.866 Y56.904 E4.97412
G1 X173.586 Y57.002 E4.98888
G1 X174.477 Y57.15 E5.00723
G1 X176.282 Y57.478 E5.0445
G1 X176.966 Y57.614 E5.05866
G1 X177.889 Y57.824 E5.07789
G1 X179.609 Y58.243 E5.11386
G1 X180.347 Y58.437 E5.12936
G1 X181.216 Y58.69 E5.14775
G1 X182.981 Y59.236 E5.18528
G1 X183.646 Y59.452 E5.19949
G1 X184.502 Y59.759 E5.21796
G1 X186.602 Y60.546 E5.26352
G1 X187.747 Y61.033 E5.2888
G1 X189.367 Y61.755 E5.32483
G1 X190.024 Y62.058 E5.33953
G1 X190.646 Y62.366 E5.35363
G1 X192.492 Y63.325 E5.39589
G1 X193.13 Y63.67 E5.41062
G1 X193.891 Y64.109 E5.42847
G1 X195.456 Y65.044 E5.46551
G1 X196.088 Y65.435 E5.48061
G1 X196.854 Y65.94 E5.49925
G1 X198.686 Y67.189 E5.54429
G1 X199.697 Y67.943 E5.56991
G1 X201.079 Y69.013 E5.60542
G1 X201.607 Y69.433 E5.61912
G1 X202.413 Y70.115 E5.64057
G1 X203.821 Y71.346 E5.67857
G1 X204.351 Y71.826 E5.6931
G1 X204.914 Y72.365 E5.70893
G1 X206.214 Y73.646 E5.74601
G1 X206.756 Y74.197 E5.76171
G1 X207.386 Y74.875 E5.78051
G1 X208.596 Y76.218 E5.81724
G1 X209.066 Y76.758 E5.83178
G1 X209.659 Y77.479 E5.85074
G1 X210.773 Y78.876 E5.88704
G1 X211.216 Y79.451 E5.90179
G1 X211.786 Y80.235 E5.92148
G1 X212.806 Y81.686 E5.95751
G1 X213.226 Y82.304 E5.97269
G1 X213.707 Y83.056 E5.99083
G1 X214.914 Y85.008 E6.03745
G1 X215.482 Y86.025 E6.06112
G1 X216.334 Y87.611 E6.09769
G1 X216.681 Y88.281 E6.11302
G1 X217.085 Y89.12 E6.13194
G1 X218.012 Y91.117 E6.17667
G1 X218.473 Y92.237 E6.20127
G1 X219.156 Y93.977 E6.23925
G1 X219.398 Y94.627 E6.25334
G1 X219.697 Y95.503 E6.27214
G1 X220.249 Y97.201 E6.30841
G1 X220.468 Y97.913 E6.32355
G1 X220.719 Y98.823 E6.34272
G1 X221.174 Y100.575 E6.3795
G1 X221.35 Y101.299 E6.39463
G1 X221.519 Y102.092 E6.41111
G1 X221.882 Y103.932 E6.44921
G1 X222.06 Y104.911 E6.46942
G1 X222.386 Y107.316 E6.51873
G1 X222.478 Y108.089 E6.53454
G1 X222.556 Y108.939 E6.55188
G1 X222.698 Y110.834 E6.59049
G1 X222.742 Y111.568 E6.60543
G1 X222.768 Y112.455 E6.62345
G1 X222.794 Y114.263 E6.66019
G1 X222.794 Y115.015 E6.67547
G1 X222.768 Y115.867 E6.69278
G1 X222.685 Y117.699 E6.73004
G1 X222.637 Y118.479 E6.74591
G1 X222.561 Y119.33 E6.76327
G1 X222.324 Y121.582 E6.80927
G1 X222.143 Y122.804 E6.83437
G1 X221.808 Y124.811 E6.87571
G1 X221.468 Y126.45 E6.90971
G1 X221.037 Y128.346 E6.94921
G1 X220.703 Y129.564 E6.97487
G1 X220.208 Y131.26 E7.01076
G1 X219.987 Y131.973 E7.02593
G1 X219.668 Y132.909 E7.04602
G1 X219.076 Y134.556 E7.08157
G1 X218.709 Y135.533 E7.10278
G1 X217.579 Y138.175 E7.16115
G1 X217.077 Y139.222 E7.18474
G1 X216.048 Y141.278 E7.23145
G1 X215.473 Y142.313 E7.2555
G1 X214.585 Y143.852 E7.2916
G1 X214.192 Y144.51 E7.30717
G1 X213.669 Y145.33 E7.32693
G1 X212.708 Y146.785 E7.36235
G1 X212.288 Y147.399 E7.37746
G1 F2700 E0.87746
;MESH:dish v1.stl
G0 F3600 X207.885 Y146.295
G0 X206.947 Y147.612
G0 X204.869 Y150.06
G0 X202.65 Y152.382
G0 X200.3 Y154.564
G0 X197.817 Y156.604
G0 X195.22 Y158.491
G0 X192.517 Y160.218
G0 X189.713 Y161.782
G0 X186.822 Y163.173
G0 X183.849 Y164.392
G0 X180.812 Y165.43
G0 X177.694 Y166.289
G0 X174.588 Y166.948
G0 X171.402 Y167.429
G0 X168.203 Y167.717
G0 X164.998 Y167.814
G0 X161.793 Y167.717
G0 X158.594 Y167.429
G0 X155.409 Y166.948
G0 X152.303 Y166.291
G0 X149.186 Y165.43
G0 X146.147 Y164.392
G0 X143.174 Y163.173
G0 X140.284 Y161.782
G0 X137.479 Y160.218
G0 X134.776 Y158.491
G0 X132.179 Y156.603
G0 X129.697 Y154.564
G0 X127.346 Y152.382
G0 X125.127 Y150.06
G0 X123.049 Y147.613
G0 X121.126 Y145.045
G0 X119.357 Y142.366
G0 X117.753 Y139.587
G0 X116.318 Y136.715
G0 X115.054 Y133.761
G0 X113.972 Y130.741
G0 X113.068 Y127.637
G0 X112.359 Y124.53
G0 X111.833 Y121.361
G0 X111.562 Y118.778
G0 X111.294 Y114.972
G1 F2700 E7.37746
G0 F3600 X110.673 Y114.976
;TYPE:WALL-OUTER
G1 F1200 X110.818 Y118.222 E7.44347
G1 X111.158 Y121.453 E7.50948
G1 X111.691 Y124.662 E7.57556
G1 X112.409 Y127.808 E7.64112
G1 X113.325 Y130.951 E7.70762
G1 X114.42 Y134.011 E7.77365
G1 X115.7 Y137.002 E7.83974
G1 X117.154 Y139.91 E7.90579
G1 X118.778 Y142.723 E7.97178
G1 X120.569 Y145.436 E8.03782
G1 X122.517 Y148.038 E8.10386
G1 X124.621 Y150.516 E8.1699
G1 X126.868 Y152.867 E8.23596
G1 X129.249 Y155.077 E8.30196
G1 X131.762 Y157.142 E8.36804
G1 X134.392 Y159.053 E8.43408
G1 X137.13 Y160.802 E8.50009
G1 X139.97 Y162.386 E8.56615
G1 X142.897 Y163.795 E8.63214
G1 X145.908 Y165.03 E8.69826
G1 X148.984 Y166.08 E8.76429
G1 X152.141 Y166.953 E8.83083
G1 X155.287 Y167.618 E8.89616
G1 X158.512 Y168.105 E8.96242
G1 X161.752 Y168.397 E9.02851
G1 X164.998 Y168.494 E9.09448
G1 X168.244 Y168.397 E9.16045
G1 X171.484 Y168.105 E9.22654
G1 X174.71 Y167.618 E9.29282
G1 X177.856 Y166.951 E9.35815
G1 X181.014 Y166.08 E9.42471
G1 X184.088 Y165.03 E9.4907
G1 X187.099 Y163.795 E9.55681
G1 X190.027 Y162.386 E9.62282
G1 X192.866 Y160.802 E9.68887
G1 X195.604 Y159.053 E9.75487
G1 X198.234 Y157.143 E9.82091
G1 X200.748 Y155.077 E9.88701
G1 X203.128 Y152.867 E9.95299
G1 X205.375 Y150.516 E10.01906
G1 X207.479 Y148.038 E10.0851
G1 X209.428 Y145.436 E10.15115
G1 X211.218 Y142.723 E10.21718
G1 X212.842 Y139.91 E10.28317
G1 X214.296 Y137.002 E10.34922
G1 X215.573 Y134.012 E10.41527
G1 X216.672 Y130.951 E10.48134
G1 X217.587 Y127.808 E10.54784
G1 X218.305 Y124.662 E10.6134
G1 X218.839 Y121.453 E10.67949
G1 X219.178 Y118.222 E10.74549
G1 X219.324 Y114.973 E10.81156
G1 X219.277 Y111.746 E10.87712
G1 X219.032 Y108.481 E10.94364
G1 X218.59 Y105.226 E11.01037
G1 X217.971 Y102.097 E11.07517
G1 X217.15 Y98.925 E11.14173
G1 X216.144 Y95.833 E11.20779
G1 X214.957 Y92.807 E11.27382
G1 X213.592 Y89.86 E11.3398
G1 X212.057 Y87.007 E11.40562
G1 X210.341 Y84.232 E11.4719
G1 X208.468 Y81.57 E11.53803
G1 X206.443 Y79.03 E11.60402
G1 X204.268 Y76.614 E11.67006
G1 X201.953 Y74.335 E11.73606
G1 X199.504 Y72.195 E11.80213
G1 X196.931 Y70.206 E11.8682
G1 X194.245 Y68.376 E11.93423
G1 X191.46 Y66.711 E12.00015
G1 X188.571 Y65.211 E12.06628
G1 X185.603 Y63.89 E12.13227
G1 X182.558 Y62.748 E12.19834
G1 X179.45 Y61.788 E12.26443
G1 X176.298 Y61.018 E12.33034
G1 X173.096 Y60.437 E12.39646
G1 X169.866 Y60.049 E12.46255
G1 X166.622 Y59.855 E12.52857
G1 X163.375 Y59.854 E12.59453
G1 X160.13 Y60.049 E12.66057
G1 X156.9 Y60.437 E12.72666
G1 X153.698 Y61.018 E12.79278
G1 X150.547 Y61.788 E12.85867
G1 X147.438 Y62.748 E12.92478
G1 X144.393 Y63.89 E12.99084
G1 X141.425 Y65.209 E13.05683
G1 X138.538 Y66.711 E13.12294
G1 X135.752 Y68.376 E13.18888
G1 X133.063 Y70.209 E13.25499
G1 X130.502 Y72.186 E13.32071
G1 X128.043 Y74.335 E13.38706
G1 X125.725 Y76.617 E13.45314
G1 X123.551 Y79.033 E13.51917
G1 X121.527 Y81.572 E13.58513
G1 X119.654 Y84.233 E13.65124
G1 X117.939 Y87.008 E13.71751
G1 X116.405 Y89.86 E13.7833
G1 X115.039 Y92.809 E13.84933
G1 X113.851 Y95.837 E13.91541
G1 X112.846 Y98.928 E13.98144
G1 X112.022 Y102.097 E14.04796
G1 X111.403 Y105.241 E14.11306
G1 X110.964 Y108.486 E14.17958
G1 X110.721 Y111.726 E14.24559
G1 X110.673 Y114.976 E14.31162
G0 F3600 X110.681 Y115.175
G0 X111.153 Y114.969
;TYPE:WALL-INNER
G1 F1200 X111.297 Y118.186 E14.37704
G1 X111.634 Y121.389 E14.44247
G1 X112.162 Y124.569 E14.50796
G1 X112.874 Y127.688 E14.57295
G1 X113.782 Y130.803 E14.63887
G1 X114.867 Y133.835 E14.70429
G1 X116.136 Y136.8 E14.76981
G1 X117.577 Y139.682 E14.83527
G1 X119.186 Y142.471 E14.90068
G1 X120.962 Y145.16 E14.96615
G1 X122.893 Y147.738 E15.03158
G1 X124.978 Y150.194 E15.09703
G1 X127.205 Y152.525 E15.16253
G1 X129.565 Y154.715 E15.22793
G1 X132.056 Y156.762 E15.29343
G1 X134.662 Y158.656 E15.35888
G1 X137.376 Y160.39 E15.42431
G1 X140.191 Y161.96 E15.48979
G1 X143.092 Y163.356 E15.55519
G1 X146.077 Y164.58 E15.62074
G1 X149.126 Y165.621 E15.68619
G1 X152.255 Y166.487 E15.75215
G1 X155.373 Y167.146 E15.81689
G1 X158.57 Y167.628 E15.88257
G1 X161.781 Y167.917 E15.94807
G1 X164.998 Y168.014 E16.01345
G1 X168.215 Y167.917 E16.07884
G1 X171.426 Y167.628 E16.14433
G1 X174.624 Y167.146 E16.21003
G1 X177.742 Y166.485 E16.27479
G1 X180.872 Y165.621 E16.34075
G1 X183.919 Y164.58 E16.40616
G1 X186.904 Y163.356 E16.47171
G1 X189.806 Y161.96 E16.53713
G1 X192.62 Y160.39 E16.60259
G1 X195.334 Y158.656 E16.66802
G1 X197.94 Y156.763 E16.73346
G1 X200.432 Y154.715 E16.79898
G1 X202.791 Y152.525 E16.86438
G1 X205.018 Y150.194 E16.92987
G1 X207.103 Y147.738 E16.99532
G1 X209.035 Y145.16 E17.06077
G1 X210.81 Y142.471 E17.12622
G1 X212.419 Y139.682 E17.19164
G1 X213.86 Y136.8 E17.2571
G1 X215.126 Y133.836 E17.32257
G1 X216.215 Y130.803 E17.38804
G1 X217.122 Y127.688 E17.45395
G1 X217.834 Y124.569 E17.51895
G1 X218.363 Y121.389 E17.58444
G1 X218.699 Y118.186 E17.64986
G1 X218.844 Y114.966 E17.71535
G1 X218.797 Y111.768 E17.78032
G1 X218.554 Y108.531 E17.84627
G1 X218.116 Y105.305 E17.91241
G1 X217.503 Y102.204 E17.97662
G1 X216.689 Y99.059 E18.04262
G1 X215.692 Y95.995 E18.10808
G1 X214.515 Y92.996 E18.17353
G1 X213.162 Y90.075 E18.23893
G1 X211.641 Y87.247 E18.30416
G1 X209.94 Y84.496 E18.36987
G1 X208.084 Y81.858 E18.4354
G1 X206.077 Y79.34 E18.50081
G1 X203.921 Y76.946 E18.56626
G1 X201.627 Y74.687 E18.63167
G1 X199.199 Y72.566 E18.69717
G1 X196.649 Y70.594 E18.76265
G1 X193.987 Y68.781 E18.82809
G1 X191.226 Y67.131 E18.89343
G1 X188.363 Y65.643 E18.95898
G1 X185.421 Y64.334 E19.0244
G1 X182.403 Y63.202 E19.08988
G1 X179.322 Y62.251 E19.15538
G1 X176.198 Y61.488 E19.22071
G1 X173.024 Y60.912 E19.28625
G1 X169.823 Y60.527 E19.35175
G1 X166.608 Y60.335 E19.41718
G1 X163.389 Y60.334 E19.48257
G1 X160.173 Y60.527 E19.54802
G1 X156.972 Y60.912 E19.61352
G1 X153.798 Y61.488 E19.67906
G1 X150.675 Y62.251 E19.74437
G1 X147.593 Y63.202 E19.80989
G1 X144.575 Y64.334 E19.87538
